X:1
T:Annie Breen
M:4/4
L:1/8
K:F
 F| DD DE FE DE| F3/2 F/2 EE D3 F| AA AG FF FA| AG G^F G3| =F| FE DE FE DE|\
 FF GG A3 F| DD DE FE DE| FF EE D3||
